X:1800
T:En dro
O:england
C:Lemou/Lefebvre: "Seizh Hun"
M:4/4
L:1/4
K:C
AB/c/d>c|AcBB|A B/c/d>c|\
AcB2:|AB/c/de|dc/B/ A>B||\
L:1/8
ccBA B3c|
ddcB A3B|ccBA B3c|\
ddcB A3 B|\
ccBA B3c|ddcB A3B|\
c2 BA B3d|c2B2A4||


